svgs/hype.svg

<svg width="192" height="192" viewBox="0 0 192 192" fill="none" xmlns="http://www.w3.org/2000/svg">
<path d="M75.7868 44.8384C75.9466 44.7932 76.1102 44.7625 76.2755 44.7468C84.3708 43.0972 93.2297 42.8833 103.066 44.6551C127.26 49.1457 154.265 62.8923 163.46 81.9237C166.27 87.7278 167.43 94.0207 166.209 100.65C165.563 104.187 165.395 103.75 162.938 109.209C168.804 100.655 173.754 88.8275 171.402 78.8994C166.453 57.6991 145.177 38.9197 120.158 34.979C86.9827 29.7858 55.8391 46.0601 40.1985 64.7555C50.6809 55.6205 62.1142 47.7631 75.7868 44.8384Z" stroke="black" stroke-width="8.00001" stroke-miterlimit="0" stroke-linecap="round" stroke-linejoin="round"/>
<path d="M23.1832 97.7782C22.7555 99.4583 22.3889 101.169 22.114 102.819C19.7312 116.138 17.7533 134.901 25.6041 145.867C29.8197 151.764 36.9832 156.527 46.6364 158.024C85.3102 164.103 131.812 136.269 141.923 129.273C145.833 126.554 160.457 114.109 164.224 107.187" stroke="black" stroke-width="8.00001" stroke-linecap="round" stroke-linejoin="round"/>
<path d="M164.224 107.187C165.325 105.127 166.107 102.913 166.545 100.619C167.706 94.0206 166.576 87.6971 163.796 81.8929C154.57 62.8615 127.26 48.7789 103.066 44.3494C93.2909 42.5471 84.4014 42.7304 76.2757 44.4411C76.1255 44.4833 75.9724 44.514 75.8175 44.5327C62.1422 47.4366 49.7002 54.5005 40.1985 64.7555C32.1551 74.3697 26.3438 85.6479 23.1832 97.778C21.3645 105.794 21.7454 114.094 25.5452 122.222C46.8603 169.42 138.698 140.074 164.224 107.187Z" stroke="black" stroke-width="8.00001"/>
<path d="M42.1533 79.6423V108.711" stroke="black" stroke-width="8" stroke-linecap="round" stroke-linejoin="round"/>
<path d="M60.3457 79.6423L60.3618 108.711" stroke="black" stroke-width="8" stroke-linecap="round" stroke-linejoin="round"/>
<path d="M42.1533 94.1768H60.3536" stroke="black" stroke-width="8"/>
<path d="M83.4789 108.711L83.4629 94.1768" stroke="black" stroke-width="8" stroke-linecap="round" stroke-linejoin="round"/>
<path d="M73.2759 79.6423L83.4629 94.1768" stroke="black" stroke-width="8" stroke-linecap="round" stroke-linejoin="round"/>
<path d="M93.698 79.6423L83.4629 94.1768" stroke="black" stroke-width="8" stroke-linecap="round" stroke-linejoin="round"/>
<path d="M106.163 108.679V95.8134" stroke="black" stroke-width="8" stroke-linecap="round" stroke-linejoin="round"/>
<path d="M106.163 75.7172V95.8134" stroke="black" stroke-width="8"/>
<path d="M134.557 112.684V75.7172" stroke="black" stroke-width="8"/>
<path d="M134.557 94.1768L149.012 94.0164" stroke="black" stroke-width="8" stroke-linecap="round"/>
<path d="M134.557 108.678L149.012 108.679" stroke="black" stroke-width="8" stroke-linecap="round"/>
<path d="M134.854 79.7225L149.31 79.5621" stroke="black" stroke-width="8" stroke-linecap="round"/>
<path d="M109.906 79.7225H113.944C113.944 79.7225 123.061 79.3537 123.172 86.8354C123.284 94.3171 114.065 93.8783 114.065 93.8783H109.967" stroke="black" stroke-width="8" stroke-linecap="square"/>
</svg>

<svg xmlns="http://www.w3.org/2000/svg" width="192" height="192" fill="none" viewBox="0 0 192 192"><path stroke="#000" stroke-linecap="round" stroke-linejoin="round" stroke-miterlimit="0" stroke-width="8" d="M75.787 44.838c.16-.045.323-.075.488-.091 8.096-1.65 16.955-1.864 26.791-.092 24.194 4.49 51.199 18.237 60.394 37.269 2.81 5.804 3.97 12.097 2.749 18.726-.646 3.537-.814 3.1-3.271 8.559 5.866-8.554 10.816-20.382 8.464-30.31-4.949-21.2-26.225-39.98-51.244-43.92-33.175-5.193-64.319 11.081-79.96 29.776 10.483-9.134 21.916-16.992 35.589-19.917Z"/><path stroke="#000" stroke-linecap="round" stroke-linejoin="round" stroke-width="8" d="M23.183 97.778a61.818 61.818 0 0 0-1.069 5.041c-2.383 13.319-4.36 32.082 3.49 43.048 4.216 5.897 11.38 10.66 21.032 12.157 38.674 6.079 85.176-21.755 95.287-28.751 3.91-2.719 18.534-15.164 22.301-22.086"/><path stroke="#000" stroke-width="8" d="M164.224 107.187a23.138 23.138 0 0 0 2.321-6.568c1.161-6.598.031-12.922-2.749-18.726-9.226-19.032-36.536-33.114-60.73-37.544-9.775-1.802-18.665-1.619-26.79.092-.15.042-.304.073-.459.092A67.74 67.74 0 0 0 40.2 64.755a84.775 84.775 0 0 0-17.016 33.023c-1.819 8.016-1.438 16.316 2.362 24.444 21.315 47.198 113.153 17.852 138.679-15.035Z"/><path stroke="#000" stroke-linecap="round" stroke-linejoin="round" stroke-width="8" d="M42.153 79.642v29.069M60.346 79.642l.016 29.069"/><path stroke="#000" stroke-width="8" d="M42.153 94.177h18.2"/><path stroke="#000" stroke-linecap="round" stroke-linejoin="round" stroke-width="8" d="m83.479 108.711-.016-14.534M73.276 79.642l10.187 14.535M93.698 79.642 83.463 94.177M106.163 108.679V95.813"/><path stroke="#000" stroke-width="8" d="M106.163 75.717v20.096M134.557 112.684V75.717"/><path stroke="#000" stroke-linecap="round" stroke-width="8" d="m134.557 94.177 14.455-.16M134.557 108.678l14.455.001M134.854 79.722l14.456-.16"/><path stroke="#000" stroke-linecap="square" stroke-width="8" d="M109.906 79.722h4.038s9.117-.368 9.228 7.113c.112 7.482-9.107 7.043-9.107 7.043h-4.098"/></svg>
